X: 7618
T: Coilsfield House
R: barndance
M: 4/4
K: Gmajor
|:GA|B2 D2 G3 B,|G,6 AB|c2 c/B/A/ B2 B/A/G/|F2 A2 D3 c|
cB AG GF ED|G4 E2 CA,|B,2 G2 A,2 F2|G2 G,2 G,2:|
Bc|d3 e d2 B2|c2 e2 A2 Bc|d3 B G2 B2|AGF>E D2 Bc|
d3 e d2 B2|c d e2 e f g2|fgag fdef|g4 G2 ga|
b2 g2 d2 B2|c2 de A2 Bc|d3 G F2 G2|AGF>E D3 c|
B2 G2 D2 B,2|C2 DE A,2 DC|B,2 G2 A,2 F2|G2 G,2 G,2||

